plugins/SVG/jellyfin-plugin-playbackreporting.svg

<?xml version="1.0" encoding="UTF-8" standalone="no"?>
<svg
   xmlns:dc="http://purl.org/dc/elements/1.1/"
   xmlns:cc="http://creativecommons.org/ns#"
   xmlns:rdf="http://www.w3.org/1999/02/22-rdf-syntax-ns#"
   xmlns:svg="http://www.w3.org/2000/svg"
   xmlns="http://www.w3.org/2000/svg"
   xmlns:xlink="http://www.w3.org/1999/xlink"
   xmlns:sodipodi="http://sodipodi.sourceforge.net/DTD/sodipodi-0.dtd"
   xmlns:inkscape="http://www.inkscape.org/namespaces/inkscape"
   width="1920"
   height="1080"
   viewBox="0 0 507.99999 285.75001"
   version="1.1"
   id="svg8"
   sodipodi:docname="jellyfin-plugin-playbackreporting.svg"
   inkscape:version="1.0.1 (3bc2e813f5, 2020-09-07, custom)">
  <sodipodi:namedview
     pagecolor="#606060"
     bordercolor="#666666"
     borderopacity="1"
     objecttolerance="10"
     gridtolerance="10"
     guidetolerance="10"
     inkscape:pageopacity="0"
     inkscape:pageshadow="2"
     inkscape:window-width="1920"
     inkscape:window-height="1020"
     id="namedview3388"
     showgrid="false"
     showborder="false"
     inkscape:lockguides="true"
     inkscape:zoom="0.33854167"
     inkscape:cx="1194.7518"
     inkscape:cy="621.8951"
     inkscape:window-x="1920"
     inkscape:window-y="32"
     inkscape:window-maximized="1"
     inkscape:current-layer="layer1">
    <sodipodi:guide
       position="0,285.75"
       orientation="0,1920"
       id="guide3951"
       inkscape:locked="true" />
    <sodipodi:guide
       position="508,285.75"
       orientation="1080,0"
       id="guide3953"
       inkscape:locked="true" />
    <sodipodi:guide
       position="508,0"
       orientation="0,-1920"
       id="guide3955"
       inkscape:locked="true" />
    <sodipodi:guide
       position="0,0"
       orientation="-1080,0"
       id="guide3957"
       inkscape:locked="true" />
  </sodipodi:namedview>
  <defs
     id="defs2">
    <rect
       x="50.759791"
       y="387.58649"
       width="2.7020626"
       height="357.88762"
       id="rect1018" />
    <linearGradient
       id="linearGradient851">
      <stop
         style="stop-color:#2f2f2f;stop-opacity:1"
         offset="0"
         id="stop847" />
      <stop
         style="stop-color:#111111;stop-opacity:1"
         offset="1"
         id="stop849" />
    </linearGradient>
    <radialGradient
       xlink:href="#linearGradient851"
       id="radialGradient853"
       cx="125.25463"
       cy="16.734682"
       fx="125.25463"
       fy="16.734682"
       r="254"
       gradientTransform="matrix(0,1.0647542,-1.7495183,0,154.53226,-61.444333)"
       gradientUnits="userSpaceOnUse" />
    <style
       id="style914">.cls-1{fill:url(#linear-gradient);}</style>
  </defs>
  <metadata
     id="metadata5">
    <rdf:RDF>
      <cc:Work
         rdf:about="">
        <dc:format>image/svg+xml</dc:format>
        <dc:type
           rdf:resource="http://purl.org/dc/dcmitype/StillImage" />
        <dc:title></dc:title>
      </cc:Work>
    </rdf:RDF>
  </metadata>
  <g
     id="layer1">
    <rect
       style="opacity:0.98;fill:url(#radialGradient853);stroke-width:2.64583;fill-opacity:1"
       id="rect845"
       width="508"
       height="285.75"
       x="0"
       y="2.1874998e-06" />
    <text
       xml:space="preserve"
       id="text1016"
       style="font-family:'Noto Sans';font-size:10.58333341px;line-height:1.25;letter-spacing:0px;word-spacing:0px;-inkscape-font-specification:'Noto Sans';white-space:pre;shape-inside:url(#rect1018);" />
    <g
       id="g4071"
       transform="matrix(1.2397229,0,0,1.2397229,-63.24109,-14.456341)">
      <g
         id="g4057"
         transform="matrix(1.5018425,0,0,1.5018425,-839.80622,21.111871)">
        <path
           d="M 678.10154,43.939898 V 66.193142 L 695.58618,55.066523 Z"
           id="path4033"
           style="fill:#ffffff;fill-opacity:1;stroke-width:1.58951" />
        <path
           d="M 688.8701,91.221431 H 649.87891 V 52.230247 h 16.71054 v -5.570215 h -16.71054 c -3.06358,0 -5.57021,2.506634 -5.57021,5.570215 v 38.991184 c 0,3.063686 2.50663,5.570214 5.57021,5.570214 h 38.99119 c 3.06368,0 5.57021,-2.506528 5.57021,-5.570214 V 74.510893 H 688.8701 V 91.221431 M 677.72978,74.510893 v 11.140429 h 5.57021 V 74.510893 h -5.57021 m -11.14033,11.140429 h 5.57011 V 63.37057 h -5.57011 v 22.280752 m -5.57021,0 V 68.940784 h -5.57022 v 16.710538 z"
           id="path4044"
           style="fill:#ffffff;fill-opacity:1;stroke-width:2.78509"
           sodipodi:nodetypes="cccccsssssscccccccccccccccccc" />
      </g>
      <text
         xml:space="preserve"
         style="font-style:italic;font-weight:300;font-stretch:extra-condensed;font-size:35.2778px;line-height:0.95;font-family:'Noto Sans';-inkscape-font-specification:'Noto Sans Light Italic Extra-Condensed';letter-spacing:0px;word-spacing:0px;stroke-width:0.264583"
         x="208.09007"
         y="124.73369"
         id="text4061"><tspan
           sodipodi:role="line"
           id="tspan4059"
           x="208.09007"
           y="124.73369"
           style="font-style:normal;font-variant:normal;font-weight:800;font-stretch:normal;font-size:35.2778px;font-family:'Noto Sans';-inkscape-font-specification:'Noto Sans Ultra-Bold';fill:#ffffff;fill-opacity:1;stroke-width:0.264583">Playback</tspan><tspan
           sodipodi:role="line"
           x="208.09007"
           y="158.2476"
           style="font-style:normal;font-variant:normal;font-weight:800;font-stretch:normal;font-size:35.2778px;font-family:'Noto Sans';-inkscape-font-specification:'Noto Sans Ultra-Bold';fill:#ffffff;fill-opacity:1;stroke-width:0.264583"
           id="tspan4063">Reporting</tspan></text>
    </g>
  </g>
</svg>

<svg xmlns="http://www.w3.org/2000/svg" xmlns:xlink="http://www.w3.org/1999/xlink" width="1920" height="1080" viewBox="0 0 508 285.75">
    <defs>
        <radialGradient xlink:href="#a" id="b" cx="125.255" cy="16.735" fx="125.255" fy="16.735" r="254" gradientTransform="matrix(0 1.06475 -1.74952 0 154.532 -61.444)" gradientUnits="userSpaceOnUse"/>
        <linearGradient id="a">
            <stop style="stop-color:#2f2f2f;stop-opacity:1" offset="0"/>
            <stop style="stop-color:#111;stop-opacity:1" offset="1"/>
        </linearGradient>
        <style/>
    </defs>
    <path style="opacity:.98;fill:url(#b);stroke-width:2.64583;fill-opacity:1" d="M0 0h508v285.75H0z"/>
    <path d="M678.102 43.94v22.253l17.484-11.126z" style="fill:#fff;fill-opacity:1;stroke-width:1.58951" transform="translate(-1104.365 11.717) scale(1.86186)"/>
    <path d="M688.87 91.221h-38.99v-38.99h16.71V46.66h-16.71c-3.064 0-5.57 2.507-5.57 5.57v38.991c0 3.064 2.506 5.57 5.57 5.57h38.991c3.064 0 5.57-2.506 5.57-5.57v-16.71h-5.57v16.71m-11.14-16.71v11.14h5.57v-11.14h-5.57m-11.14 11.14h5.57v-22.28h-5.57v22.28m-5.57 0v-16.71h-5.571v16.71z" style="fill:#fff;fill-opacity:1;stroke-width:2.78509" transform="translate(-1104.365 11.717) scale(1.86186)"/>
    <text xml:space="preserve" style="font-style:italic;font-weight:300;font-stretch:extra-condensed;font-size:35.2778px;line-height:.95;font-family:'Noto Sans';-inkscape-font-specification:'Noto Sans Light Italic Extra-Condensed';letter-spacing:0;word-spacing:0;stroke-width:.264583" x="208.09" y="124.734" transform="translate(-63.241 -14.456) scale(1.23972)"><tspan x="208.09" y="124.734" style="font-style:normal;font-variant:normal;font-weight:800;font-stretch:normal;font-size:35.2778px;font-family:'Noto Sans';-inkscape-font-specification:'Noto Sans Ultra-Bold';fill:#fff;fill-opacity:1;stroke-width:.264583">Playback</tspan><tspan x="208.09" y="158.248" style="font-style:normal;font-variant:normal;font-weight:800;font-stretch:normal;font-size:35.2778px;font-family:'Noto Sans';-inkscape-font-specification:'Noto Sans Ultra-Bold';fill:#fff;fill-opacity:1;stroke-width:.264583">Reporting</tspan></text>
</svg>
